X:54
T:Liverpool Hornpipe
S:American Veteran Fifer #54
C:Donated by Dr. Wm. M. Haffner, Bass Drummer Co.A.154th O.V.I.
M:2/4
L:1/16
Q:1/8=180
K:D 
%%MIDI program 72
%%MIDI transpose 8
%%MIDI ratio 3 1
A2 | FDFA dfaf | gefd ecBA | GBGB FAFA | EFGA GFED |
FDFA dfaf | gefd ecBA | afdf gecA | d2f2d2 :|
|: A2 | dfdf cece | Bcde dcBA | GBGB FAFA | EFGA GFED |
FDFA dfaf | gefd ecBA | afdf gecA | d2f2d2 :|


